X: 1317
T: MacLean's Favorite
R:Reel
N:Collected by Kennedy
B:O'Neill's 1317
Z:Transcribed by Trish O'Neil
M:C|
L:1/8
K:Em
(gf)|:edBA GABc|dGBG dGBe|edBA GABA|1Bee^d efgf:|2Bee^de2||
e2|defg afdf|e^def e=dBe|defg afdf|e^defd2d2|
defg afdf|e^def e=dBf|g2gef2f^d|efe^d ef"D.C."gf|]


